X:3644
T:Cup of Tea
R:Reel
Z:Sometimes played as a two-part-only reel.
Z:id:hn-reel-63
M:C|
L:1/8
Q:1/4=200
K:D % E dorian 2 sharps
|BAGF GEEF|GEBE GBE=c|BAGF GEEG|(3FED AD FAD=c|
BAGF GEEF|(3GFE BE GBE=c|BAGF GAB^c|1 dBAG FDD=c:|2 dBAG FDD2||
|:d2 (3efg fdec|dfeg fB~B2|d2 (3efg fdec|dBAG FDD2|
d2 (3efg fdec|dfaf g2fg|afge fdec|dBAG FDD2:|
|:FAdA FABA|FAdA FE~E2|~F3A BABc|dBAG FDD2|
FAdA FABA|FAde fe~e2|fedc dBAF|1 GBAG FDD2:|2 GBAG FDD=c|]


